.icons/Gruvbox-Plus-Dark/apps/16/webplotdigitizer.svg

<svg width="16" height="16" version="1.1" xmlns="http://www.w3.org/2000/svg">
  <defs>
    <style type="text/css" id="current-color-scheme">.ColorScheme-Text { color:#ebdbb2; } .ColorScheme-Highlight { color:#458588; }</style>
  </defs>
  <path class="ColorScheme-Text" fill="currentColor" d="m11.11 3.09c-0.539 0.298-1.01 0.764-1.431 1.294-0.753 0.947-1.402 2.15-2.061 3.33-0.66 1.18-1.329 2.337-2.049 3.161-0.387 0.444-0.773 0.783-1.179 0.991-0.25-0.329-0.646-0.538-1.09-0.538-0.433 0-0.821 0.198-1.069 0.516-0.394-0.189-0.769-0.477-1.09-0.781-0.506-0.479-1.031-1.225-1.138-1.376v1.808c0.046 0.046 0.323 0.331 0.372 0.377 0.42 0.398 0.941 0.816 1.548 1.09 0.118 0.653 0.69 1.152 1.377 1.152 0.682 0 1.25-0.492 1.375-1.137 0.654-0.3 1.23-0.792 1.734-1.37 0.83-0.951 1.518-2.162 2.182-3.349 0.663-1.187 1.302-2.352 1.96-3.181 0.313-0.393 0.617-0.699 0.921-0.9 0.244 0.291 0.611 0.467 1.019 0.467 0.446 0 0.844-0.211 1.095-0.542 0.476 0.201 0.963 0.513 1.382 0.841 0.35 0.274 0.813 0.608 1.035 0.823-6e-3 -0.529-0.03-1.014-0.074-1.456-0.062-0.051-0.209-0.193-0.275-0.244-0.511-0.4-1.119-0.819-1.789-1.088-0.133-0.637-0.698-1.12-1.374-1.12-0.714 0-1.303 0.539-1.381 1.232zm2.972 10.19v0.861h-3.979l2.157-2.832-2.157-2.832h3.979v0.86h-2.242l1.501 1.972-1.501 1.971h2.242z"/>
</svg>

<svg xmlns="http://www.w3.org/2000/svg" style="isolation:isolate" width="16" height="16" viewBox="0 0 16 16">
 <defs>
  <style id="current-color-scheme" type="text/css">
   .ColorScheme-Text { color:#ebdbb2; } .ColorScheme-Highlight { color:#458588; }
  </style>
  <linearGradient id="arrongin" x1="0%" x2="0%" y1="0%" y2="100%">
   <stop offset="0%" style="stop-color:#d79921; stop-opacity:1"/>
   <stop offset="100%" style="stop-color:#b57614; stop-opacity:1"/>
  </linearGradient>
  <linearGradient id="aurora" x1="0%" x2="0%" y1="0%" y2="100%">
   <stop offset="0%" style="stop-color:#83a598; stop-opacity:1"/>
   <stop offset="100%" style="stop-color:#b16286; stop-opacity:1"/>
  </linearGradient>
  <linearGradient id="fitdance" x1="0%" x2="0%" y1="0%" y2="100%">
   <stop offset="0%" style="stop-color:#8ec07c; stop-opacity:1"/>
   <stop offset="100%" style="stop-color:#458588; stop-opacity:1"/>
  </linearGradient>
  <linearGradient id="oomox" x1="0%" x2="0%" y1="0%" y2="100%">
   <stop offset="0%" style="stop-color:#458588; stop-opacity:1"/>
   <stop offset="100%" style="stop-color:#928374; stop-opacity:1"/>
  </linearGradient>
  <linearGradient id="rainblue" x1="0%" x2="0%" y1="0%" y2="100%">
   <stop offset="0%" style="stop-color:#b8bb26; stop-opacity:1"/>
   <stop offset="100%" style="stop-color:#076678; stop-opacity:1"/>
  </linearGradient>
  <linearGradient id="sunrise" x1="0%" x2="0%" y1="0%" y2="100%">
   <stop offset="0%" style="stop-color: #fe8019; stop-opacity:1"/>
   <stop offset="100%" style="stop-color: #fabd2f; stop-opacity:1"/>
  </linearGradient>
  <linearGradient id="telinkrin" x1="0%" x2="0%" y1="0%" y2="100%">
   <stop offset="0%" style="stop-color: #83a598; stop-opacity:1"/>
   <stop offset="100%" style="stop-color: #83a598; stop-opacity:1"/>
  </linearGradient>
  <linearGradient id="60spsycho" x1="0%" x2="0%" y1="0%" y2="100%">
   <stop offset="0%" style="stop-color: #fb4934; stop-opacity:1"/>
   <stop offset="25%" style="stop-color: #fabd2f; stop-opacity:1"/>
   <stop offset="50%" style="stop-color: #fe8019; stop-opacity:1"/>
   <stop offset="100%" style="stop-color: #689d6a; stop-opacity:1"/>
  </linearGradient>
  <linearGradient id="90ssummer" x1="0%" x2="0%" y1="0%" y2="100%">
   <stop offset="0%" style="stop-color: #b16286; stop-opacity:1"/>
   <stop offset="20%" style="stop-color: #8ec07c; stop-opacity:1"/>
   <stop offset="50%" style="stop-color: #fabd2f; stop-opacity:1"/>
   <stop offset="100%" style="stop-color: #458588; stop-opacity:1"/>
  </linearGradient>
  <linearGradient id="cyberneon" x1="0%" x2="0%" y1="0%" y2="100%">
    <stop offset="0" style="stop-color:#83a598; stop-opacity:1"/>
    <stop offset="1" style="stop-color:#b16286; stop-opacity:1"/>
  </linearGradient>
 </defs>
 <path style="fill:currentColor" class="ColorScheme-Text" fill-rule="evenodd" d="M 11.107 3.09 C 10.568 3.388 10.097 3.854 9.676 4.384 C 8.923 5.331 8.274 6.534 7.615 7.714 C 6.955 8.894 6.286 10.051 5.566 10.875 C 5.179 11.319 4.793 11.658 4.387 11.866 C 4.137 11.537 3.741 11.328 3.297 11.328 C 2.864 11.328 2.476 11.526 2.228 11.844 C 1.834 11.655 1.459 11.367 1.138 11.063 C 0.632 10.584 0.107 9.838 0 9.687 L 0 11.495 C 0.046 11.541 0.323 11.826 0.372 11.872 C 0.792 12.27 1.313 12.688 1.92 12.962 C 2.038 13.615 2.61 14.114 3.297 14.114 C 3.979 14.114 4.547 13.622 4.672 12.977 C 5.326 12.677 5.902 12.185 6.406 11.607 C 7.236 10.656 7.924 9.445 8.588 8.258 C 9.251 7.071 9.89 5.906 10.548 5.077 C 10.861 4.684 11.165 4.378 11.469 4.177 C 11.713 4.468 12.08 4.644 12.488 4.644 C 12.934 4.644 13.332 4.433 13.583 4.102 C 14.059 4.303 14.546 4.615 14.965 4.943 C 15.315 5.217 15.778 5.551 16 5.766 C 15.994 5.237 15.97 4.752 15.926 4.31 C 15.864 4.259 15.717 4.117 15.651 4.066 C 15.14 3.666 14.532 3.247 13.862 2.978 C 13.729 2.341 13.164 1.858 12.488 1.858 C 11.774 1.858 11.185 2.397 11.107 3.09 Z M 14.079 13.281 L 14.079 14.142 L 10.1 14.142 L 12.257 11.31 L 10.1 8.478 L 14.079 8.478 L 14.079 9.338 L 11.837 9.338 L 13.338 11.31 L 11.837 13.281 L 14.079 13.281 Z"/>
</svg>
